icons/flakelock.svg

<svg width="16" height="16" viewBox="0 0 16 16" fill="none" xmlns="http://www.w3.org/2000/svg">
<g clip-path="url(#clip0_802_56)">
<path d="M6.36 6L3.1 11.59L2.33 10.28L3.24 8.69H1.42L1 8L1.42 7.31H4L4.76 6H6.36ZM7.09 10.41H13.53L12.76 11.72H10.94L11.85 13.31L11.43 14H10.66L9.4 11.72H7.9L7.09 10.41ZM10.56 7.54L7.3 2H8.84L9.75 3.59L10.66 2H11.43L11.85 2.69L10.52 4.9L11.37 6.21L10.56 7.54Z" fill="#909090" fill-opacity="0.9"/>
<path d="M8.87999 5.59H2.39999L3.16999 4.28H4.98999L4.07999 2.69L4.49999 2H5.26999L6.59999 4.21H8.09999L8.87999 5.59Z" fill="#909090" fill-opacity="0.9"/>
<path d="M9.64001 10L12.9 4.41L13.67 5.72L12.76 7.31H14.58L15 8L14.58 8.69H11.99L11.24 10H9.64001Z" fill="#909090" fill-opacity="0.9"/>
<path d="M5.45999 8.57001L8.69999 13.93H7.15999L6.24999 12.35L5.47999 13.93H4.56999L4.14999 13.24L5.47999 11.04L4.72999 9.87001L5.45999 8.57001Z" fill="#909090" fill-opacity="0.9"/>
</g>
<defs>
<clipPath id="clip0_802_56">
<rect width="14" height="12" fill="white" transform="translate(1 2)"/>
</clipPath>
</defs>
</svg>

<svg xmlns="http://www.w3.org/2000/svg" width="16" height="16" fill="none" viewBox="0 0 16 16"><g fill="#909090" fill-opacity=".9" clip-path="url(#clip0_802_56)"><path d="M6.36 6 3.1 11.59l-.77-1.31.91-1.59H1.42L1 8l.42-.69H4L4.76 6zm.73 4.41h6.44l-.77 1.31h-1.82l.91 1.59-.42.69h-.77L9.4 11.72H7.9zm3.47-2.87L7.3 2h1.54l.91 1.59.91-1.59h.77l.42.69-1.33 2.21.85 1.31zM8.88 5.59H2.4l.77-1.31h1.82l-.91-1.59L4.5 2h.77L6.6 4.21h1.5zM9.64 10l3.26-5.59.77 1.31-.91 1.59h1.82L15 8l-.42.69h-2.59L11.24 10zM5.46 8.57l3.24 5.36H7.16l-.91-1.58-.77 1.58h-.91l-.42-.69 1.33-2.2-.75-1.17z"/></g><defs><clipPath id="clip0_802_56"><path fill="#fff" d="M1 2h14v12H1z"/></clipPath></defs></svg>
